src/lib/packages/icons/src/assets/filled/pause.svg

<svg xmlns="http://www.w3.org/2000/svg" width="24" height="24" fill="none"><path fill="currentColor" d="M5 19.5v-15C5 3.5 5.5 3 6.5 3h2c1 0 1.5.5 1.5 1.5v15c0 1-.5 1.5-1.5 1.5h-2c-1 0-1.5-.5-1.5-1.5ZM15.5 21h2c1 0 1.5-.5 1.5-1.5v-15c0-1-.5-1.5-1.5-1.5h-2c-1 0-1.5.5-1.5 1.5v15c0 1 .5 1.5 1.5 1.5Z"/></svg>

<svg width="24" height="24" viewBox="0 0 24 24" fill="none" xmlns="http://www.w3.org/2000/svg">
<path d="M5 19.5V4.5C5 3.5 5.5 3 6.5 3H8.5C9.5 3 10 3.5 10 4.5V19.5C10 20.5 9.5 21 8.5 21H6.5C5.5 21 5 20.5 5 19.5ZM15.5 21H17.5C18.5 21 19 20.5 19 19.5V4.5C19 3.5 18.5 3 17.5 3H15.5C14.5 3 14 3.5 14 4.5V19.5C14 20.5 14.5 21 15.5 21Z" fill="currentColor"/>
</svg>
